X: 1812
M: 2/4
L: 1/8
K: D
V: 1
(AG)GG | (FA)AA | (Ag)(ec) | dFFA |\
e2cA | dfa2 | (gA) (eg) | (fA) (df) |\
e2(cA) | dfa2 | gA ce | d3 |]
V: 2
(FE)EE | (DF)(DF) | G2GG | F2FD |\
E3E | D3F | (FE)EE | (DF)(DF) |\
E3E | D4 |\
(GA) (GA) | (Ad) (Ad) | EA GA | FA FA |\

